X: 1500
T: Andy De Jarlis'
R: jig
M: 6/8
K: Dmajor
|d2e|:fef def|gfg B3|efe e2d|cBA a2g|
fef def|gfg B3|efe ABc|df~e d2 z:|
|:(DFA) (DFA)|(DFA) (B2 A)|(DFA) (DFA)|(G~FG) E2 F|
(DFA) (DFA)|(DFA) (B2 g)|~fed ABc|dfe d2 z:|
|:(DFA) (DFA)|(DFA) (B2 A)|(DFA) (DFA)|^B,EG AGE|
(DFA) (DFA)|(DFA) (B2 g)|~fed ABc|dfe d2 z:|

